X:66
T:What if a Day
Z:Jack Campin, http://www.campin.me.uk/
F:Jack Campin's Nine-Note Tunebook
% last edit 03-02-2013
S:Simpson, The British Broadside Ballad and Its Music
M:C|
L:1/4
Q:1/2=60
K:DMin
DC/D/ ED/E/|FG/F/ E2|FE/F/ GF/G/| A>A GF |E2D2:|
AA    GG   |FF    E2|FG    Ac   |=B2  A2:|
FG    A2   |EF    G2|DE    FG/F/| E2  D2:|

